findly-builder/apps/searchassist/src/assets/icons/add-urls.svg

<svg width="16" height="16" viewBox="0 0 16 16" fill="none" xmlns="http://www.w3.org/2000/svg">
<rect width="16" height="16" fill="#D8D8D8" fill-opacity="0.01"/>
<path d="M8.5404 2.48512C8.51576 2.21314 8.28624 2.00001 8.00674 2.00001C7.7108 2.00001 7.4709 2.23895 7.4709 2.53369V7.26235L2.53585 7.26015L2.48707 7.26233C2.21399 7.28687 2 7.51546 2 7.79383C2 8.08857 2.23991 8.3275 2.53585 8.3275L7.4709 8.3297V13.4663L7.47309 13.5149C7.49773 13.7869 7.72725 14 8.00674 14C8.30268 14 8.54259 13.7611 8.54259 13.4663V8.3297L13.4642 8.33193L13.5129 8.32975C13.786 8.30521 14 8.07662 14 7.79825C14 7.50351 13.7601 7.26457 13.4642 7.26457L8.54259 7.26235L8.54259 2.53369L8.5404 2.48512Z" fill="#202124"/>
</svg>

<svg width="16" height="16" fill="none" xmlns="http://www.w3.org/2000/svg"><path fill="#D8D8D8" fill-opacity=".01" d="M0 0h16v16H0z"/><path d="M8.54 2.485a.535.535 0 0 0-1.07.049v4.728L2.537 7.26l-.049.002a.535.535 0 0 0 .049 1.066l4.935.002v5.136l.002.049a.535.535 0 0 0 1.07-.049V8.33l4.921.002.049-.002a.535.535 0 0 0-.049-1.065l-4.921-.003V2.534l-.003-.049Z" fill="#202124"/></svg>
